X:1
T:Will I Empty Handed Be?
T:Will I Empty Handed Be?
T:John P. Hillis
T:Neal A. McAulay, 1904
T:Public Domain Courtesy of the Cyber Hymnal™
C:John P. Hillis
Z:Public Domain
Z:Courtesy of the Cyber Hymnal™
%%score ( 1 2 ) ( 3 4 )
L:1/8
Q:1/4=105
M:4/4
K:Eb
V:1 treble 
V:2 treble 
V:3 bass 
V:4 bass 
V:1
 B,>B, | E2 G2 [^Fc]2 [F=A]2 | [GB]6 B,>B, | E2 [_DEF]2 [C=EGc]2 [CEG]2 | [CFA]6 A>A | %5
w: 1.~Will I|emp- ty hand- ed|be When be-|side the crys- tal|sea I shall|
w: 2.~When the|har- vest days are|past, Shall I|hear Him say at|last, “Wel- come,|
w: 3.~When the|books are o- pened|wide, And the|deeds of all are|tried, May I|
 d2 d2 c2 c2 | B2 B2 c2 A2 x2 | [B,EG]8- | [B,EG]2 z4 B,>B, | E2 [=B,FG]2 [EGe]2 [EGc]2 | %10
w: stand be- fore the|ev- er- last- ing|throne?|* Must I|have a heart of|
w: toil- er, I’ve pre-|pared for thee a|place”?|* Shall I|bring Him gold- en|
w: have a re- cord|whit- er than the|snow?|* When my|race on earth is|
 [DG=Bd]6 d>d | c2 [CEc]2 [^D^F=B]2 [DFB]2 | [EGB]6 B>B | c2 B2 [C=EA]2 [B,EG]2 | F2 C2 F2 G2 | %15
w: shame As I|an- swer to my|name, With no|works that my Re-|deem- er there can|
w: sheaves, Rip- ened|fruit, not fad- ed|leaves, When I|see the bless- èd|Sav- ior face to|
w: run, May I|hear Him say, “Wel-|come, Take the|crown that Love im-|mor- tal doth be-|
 E8- ([B,D]2 [A,C]2 | [G,B,E]2) z4 |] %17
w: own? * *||
w: face? * *||
w: stow”? * *||
V:2
 x2 | x8 | x8 | x8 | x8 | D4 D4 | D4 D4 x2 | x8 | x8 | x8 | x6 [DF=B]2 | x8 | x8 | x8 | %14
 [=A,E]4 [_A,D]4 | [G,B,]4 x8 | x6 |] %17
V:3
 B,,>B,, | E,2 G,2 =A,2 C2 | [E,B,]6 B,,>B,, | E,2 _D,2 C,2 [C,B,]2 | [F,A,]6 z2 | %5
 z2 B,,2 z2 B,,2 | z2 z2 B,,2 x4 | (E,4 B,,4 | E,,2) z4 B,,>B,, | E,2 D,2 C,2 E,2 | [A,,G,]6 G,2 | %11
 A,2 A,2 =A,2 A,2 | B,6 B,>B, | C2 B,2 A,2 G,2 | [F,,C,F,]4 [B,,F,]4 | E,8- x4 | [E,,E,]2 z4 |] %17
V:4
 x2 | x4 E,4 | x8 | x8 | x8 | B,4 A,4 | G,4 B,,2 [F,A,]4 | x8 | x8 | x8 | x8 | x8 | x8 | x4 C,4 | %14
 x8 | E,,4- A,,4 x4 | x6 |] %17

